X: 7123
T: Christmas In Spiddal
R: mazurka
M: 3/4
K: Dmajor
Ad dA de|d3e dc|Ad dA FA|G2 EF GB|A2 dA fA|de fg ab|af ge Ac|1 ed dA GE:|2 ed de fg||
a2 fe fa|.f2 ~f2~f2|Ad de fa|g2 ef~fe|a2 fe fa|.f2 ~f2~f2|Ac ea fe|ed d2 fg|
ab f2 f/e/f/a/|.f2 ~f2~f2|Ad de fa|g2 ~e4|af b2 af|ge fd ec|Ac ea ge|d6||

